ui_kit/lib/assets/icons/notification.svg

<svg width="19" height="18" viewBox="0 0 19 18" fill="none" xmlns="http://www.w3.org/2000/svg">
<path d="M16.2026 0.327373C15.9314 -0.03418 15.4185 -0.107454 15.0569 0.163711C14.6954 0.434875 14.6221 0.947794 14.8933 1.30935C15.8494 2.58417 16.3662 4.13471 16.3662 5.72823C16.3662 6.18017 16.7326 6.54654 17.1846 6.54654C17.6365 6.54654 18.0029 6.18017 18.0029 5.72823C18.0029 3.78059 17.3712 1.88549 16.2026 0.327373Z" fill="white"/>
<path d="M2.95202 0.168322C3.31102 0.442854 3.3795 0.956435 3.10497 1.31544C2.15355 2.5596 1.63662 4.1022 1.63662 5.72823C1.63662 6.18017 1.27025 6.54654 0.818312 6.54654C0.366371 6.54654 0 6.18017 0 5.72823C0 3.75368 0.628707 1.85937 1.8049 0.321271C2.07944 -0.0377323 2.59302 -0.10621 2.95202 0.168322Z" fill="white"/>
<path fill-rule="evenodd" clip-rule="evenodd" d="M9.00143 5.78272e-05C7.48222 5.78272e-05 6.02524 0.603561 4.95099 1.6778C3.87675 2.75205 3.27325 4.20903 3.27325 5.72824C3.27325 8.47176 2.68646 10.1755 2.1457 11.1669C1.87419 11.6646 1.6098 11.9912 1.42615 12.185C1.33411 12.2822 1.26178 12.3466 1.21824 12.3829C1.19645 12.4011 1.18184 12.4122 1.17554 12.4169L1.1732 12.4186C0.879851 12.6201 0.750035 12.9887 0.853422 13.3302C0.957919 13.6753 1.27602 13.9114 1.63662 13.9114H16.3662C16.7268 13.9114 17.0449 13.6753 17.1494 13.3302C17.2528 12.9887 17.123 12.6201 16.8297 12.4186L16.8273 12.4169C16.821 12.4122 16.8064 12.4011 16.7846 12.3829C16.7411 12.3466 16.6688 12.2822 16.5767 12.185C16.3931 11.9912 16.1287 11.6646 15.8572 11.1669C15.3164 10.1755 14.7296 8.47176 14.7296 5.72824C14.7296 4.20903 14.1261 2.75205 13.0519 1.6778C11.9776 0.603561 10.5206 5.78272e-05 9.00143 5.78272e-05ZM14.6074 12.2747H3.39544C3.4577 12.1727 3.52021 12.0647 3.58248 11.9506C4.26919 10.6916 4.90987 8.71291 4.90987 5.72824C4.90987 4.64309 5.34094 3.60239 6.10826 2.83507C6.87558 2.06776 7.91628 1.63668 9.00143 1.63668C10.0866 1.63668 11.1273 2.06776 11.8946 2.83507C12.6619 3.60239 13.093 4.64309 13.093 5.72824C13.093 8.71291 13.7337 10.6916 14.4204 11.9506C14.4827 12.0647 14.5452 12.1727 14.6074 12.2747Z" fill="white"/>
<path d="M8.29359 15.9557C8.06682 15.5648 7.56608 15.4317 7.17515 15.6585C6.78422 15.8852 6.65114 16.386 6.87791 16.7769C7.09372 17.1489 7.40346 17.4577 7.77614 17.6724C8.14882 17.887 8.57136 18 9.00143 18C9.43151 18 9.85404 17.887 10.2267 17.6724C10.5994 17.4577 10.9092 17.1489 11.125 16.7769C11.3517 16.386 11.2186 15.8852 10.8277 15.6585C10.4368 15.4317 9.93605 15.5648 9.70927 15.9557C9.63734 16.0797 9.53409 16.1826 9.40986 16.2542C9.28564 16.3257 9.14479 16.3634 9.00143 16.3634C8.85807 16.3634 8.71723 16.3257 8.593 16.2542C8.46878 16.1826 8.36553 16.0797 8.29359 15.9557Z" fill="white"/>
</svg>

<svg xmlns="http://www.w3.org/2000/svg" width="19" height="18" fill="none" viewBox="0 0 19 18"><path fill="#fff" d="M16.203.327a.818.818 0 0 0-1.31.982 7.365 7.365 0 0 1 1.473 4.42.818.818 0 0 0 1.637 0 9.001 9.001 0 0 0-1.8-5.402ZM2.952.168a.818.818 0 0 1 .153 1.147 7.241 7.241 0 0 0-1.468 4.413.818.818 0 1 1-1.637 0C0 3.754.629 1.86 1.805.321A.818.818 0 0 1 2.952.168Z"/><path fill="#fff" fill-rule="evenodd" d="M9.001 0a5.728 5.728 0 0 0-5.728 5.728c0 2.744-.587 4.447-1.127 5.439a4.858 4.858 0 0 1-.72 1.018 2.47 2.47 0 0 1-.25.232l-.003.002a.818.818 0 0 0 .464 1.492h14.73a.818.818 0 0 0 .463-1.492l-.003-.002a2.487 2.487 0 0 1-.25-.232 4.86 4.86 0 0 1-.72-1.018c-.54-.992-1.127-2.695-1.127-5.439A5.728 5.728 0 0 0 9 0Zm5.606 12.275H3.395c.063-.102.125-.21.187-.324.687-1.26 1.328-3.238 1.328-6.223a4.092 4.092 0 1 1 8.183 0c0 2.985.64 4.964 1.327 6.223.063.114.125.222.187.324Z" clip-rule="evenodd"/><path fill="#fff" d="M8.294 15.956a.818.818 0 0 0-1.416.82 2.456 2.456 0 0 0 4.247 0 .818.818 0 0 0-1.416-.82.819.819 0 0 1-1.415 0Z"/></svg>
